X:1
T:From the Deeps, to Thee, O Lord
T:From the Deeps, to Thee, O Lord
T:Ann Mounsey Bartholomew, 1854
T:William Bartholomew, 1854
T:Public Domain Courtesy of the Cyber Hymnal™
T:Public Domain Courtesy of the Cyber Hymnal™
C:Ann Mounsey Bartholomew, 1854
Z:Public Domain
Z:Courtesy of the Cyber Hymnal™
%%score ( 1 2 ) ( 3 4 )
L:1/8
Q:1/4=107
M:4/4
K:F
V:1 treble 
V:2 treble 
V:3 bass 
V:4 bass 
V:1
!f! [CF]2 [EG]2 [FA]2 [CF]2 | [EG]2 [DB]2 [^CA]4 | [DA]2 [D=B]2 [Cc]2 [CA]2 | [F=B]2 [Ed]2 [Ec]4 | %4
w: 1.~From the deeps, to|Thee, O Lord,|We have cried, and|Thou hast heard;|
 [Ac]2 [Ad]2 [^Ge]4 | [G=B]2 [Gc]2 [Fd]4 | [EA]2 [DB]2 [Cc]2 [DF]2 | [B,G]2 [CE]2 [A,F]4 || %8
w: Calmed our fears,|dried our tears,|Made our staff of|hope Thy Word.|
[K:Ab]!pp! F2 [CG]2 [CA]2 [DF]2 | [DG]2 [CB]2 [CA]4 | [CA]2 [DB]2 [Ec]2 [EA]2 | [FB]2 [Ed]2 [Ec]4 | %12
w: 2.~While op- pressed with|pain we lay,|Thou didst deign to|hear us pray;|
 [Ac]2 [Gd]2 [Ae]4 | [GB]2 [_Gc]2 [Fd]4 |!>(! [FA]2 [FB]2!>)! [=Ec]2 [CF]2 | [DF]2 [C=E]2 [CF]4 || %16
w: From the grave|Thou didst save;|Thou didst chase the|pain a- way.|
[K:F]!ff! [CF]2 [EG]2 [FA]2 [CF]2 | [DG]2 [EB]2 [FA]4 | A2 [G=B]2 [Ac]2 [EA]2 | %19
w: 3.~Trust then, Is- rael,|in the Lord,|Make thy staff of|
 [F=B]2 [Ed]2 [Ec]4 | [Ac]2 [=Bd]2 [ce]4 | [G=B]2 [Gc]2 [Gd]4 | [CA]2 [EB]2 [Fc]2 [CF]2 | %23
w: hope His Word,|Prayer in grief,|brings re- lief;|Pray, un- til thy|
 [DG]2 [CE]2 [CF]4 | [CF]3 [CF] [DF]2 [DF]2 | [CF]2 [CE]2 [CF]4 |] %26
w: prayer be heard,|Pray, un- til thy|prayer be heard.|
V:2
 x8 | x8 | x8 | x8 | x8 | x8 | x8 | x8 ||[K:Ab] F2 x6 | x8 | x8 | x8 | x8 | x8 | x8 | x8 || %16
[K:F] x8 | x8 | A2 x6 | x8 | x8 | x8 | x8 | x8 | x8 | x8 |] %26
V:3
 [F,A,]2 [C,C]2 [F,,C]2 [A,,A,]2 | [C,G,]2 [G,,G,]2 [A,,E,]4 | [D,F,]2 [D,F,]2 [E,G,]2 [F,A,]2 | %3
 [D,A,]2 [E,^G,]2 [A,,A,]4 | [A,E]2 [F,A,]2 [E,=B,]4 | [G,=B,]2 [E,G,]2 [D,A,]4 | %6
 [C,A,]2 [B,,F,]2 [A,,F,]2 [D,A,]2 | [G,,G,]2 [C,G,]2 [F,,F,]4 || %8
[K:Ab] [A,D]2 [A,C]2 [F,A,]2 [D,A,]2 | [B,,G,]2 [C,=E,]2 [F,,F,]4 | %10
 [F,A,]2 [E,G,]2 [A,,A,]2 [C,A,]2 | [D,A,]2 [E,G,]2 [A,,A,]4 | [A,E]2 [B,E]2 [CE]4 | %13
 [E,E]2 [A,E]2 [D,D]4 | [D,A,]2 [D,F,]2 [C,G,]2 [A,,A,]2 | [B,,G,]2 [C,B,]2 [F,A,]4 || %16
[K:F] [F,A,]2 [C,C]2 [F,C]2 [F,A,]2 | [B,,G,]2 [C,C]2 [F,,C]4 | [F,C]2 [E,E]2 [A,E]2 [A,C]2 | %19
 [D,=B,]2 [E,^G,]2 [A,,A,]4 | [A,E]2 [G,G]2 [CG]4 | [DF]2 (EC) (=B,2 _B,2) | %22
 [F,A,]2 [G,C]2 [A,C]2 [A,,A,]2 | [B,,G,]2 [C,G,]2 [F,A,]4 | [_E,A,]3 [E,A,] [D,B,]2 [B,,B,]2 | %25
 [C,A,]2 [C,G,]2 [F,,A,]4 |] %26
V:4
 x8 | x8 | x8 | x8 | x8 | x8 | x8 | x8 ||[K:Ab] x8 | x8 | x8 | x8 | x8 | x8 | x8 | x8 ||[K:F] x8 | %17
 x8 | x8 | x8 | x8 | x2 C2 G,4 | x8 | x8 | x8 | x8 |] %26

